src/assets/icons/browser-action-light.svg

<?xml version="1.0" encoding="UTF-8"?>
<svg width="584px" height="585px" viewBox="0 0 584 585" version="1.1" xmlns="http://www.w3.org/2000/svg" xmlns:xlink="http://www.w3.org/1999/xlink">
    <!-- Generator: Sketch 59.1 (86144) - https://sketch.com -->
    <title>Artboard theme light</title>
    <desc>Created with Sketch.</desc>
    <defs>
        <polygon id="path-1" points="559 136 559 558 229.365328 558 137 558 137 136"></polygon>
        <filter x="-19.4%" y="-19.4%" width="138.9%" height="138.9%" filterUnits="objectBoundingBox" id="filter-2">
            <feGaussianBlur stdDeviation="1.5" in="SourceAlpha" result="shadowBlurInner1"></feGaussianBlur>
            <feOffset dx="0" dy="1" in="shadowBlurInner1" result="shadowOffsetInner1"></feOffset>
            <feComposite in="shadowOffsetInner1" in2="SourceAlpha" operator="arithmetic" k2="-1" k3="1" result="shadowInnerInner1"></feComposite>
            <feColorMatrix values="0 0 0 0 0   0 0 0 0 0   0 0 0 0 0  0 0 0 0.5 0" type="matrix" in="shadowInnerInner1"></feColorMatrix>
        </filter>
        <linearGradient x1="50%" y1="0%" x2="50%" y2="100%" id="linearGradient-3">
            <stop stop-color="#0E2FD0" stop-opacity="0.5" offset="0%"></stop>
            <stop stop-color="#000000" stop-opacity="0.5" offset="100%"></stop>
        </linearGradient>
        <path d="M302.541644,-37.4648104 L443.416478,103.410024 L443.416478,103.410024 L443.557115,609.065472 C443.558651,614.588319 439.082743,619.066717 433.559896,619.068253 C430.906768,619.068991 428.362092,618.015366 426.486047,616.139321 L294.782624,484.435898 C290.877381,480.530655 284.545731,480.530655 280.640488,484.435898 L165.151236,599.92515 C161.245993,603.830393 154.914344,603.830393 151.009101,599.92515 C149.139855,598.055904 148.086801,595.522557 148.0802,592.879052 L146.859644,104.075054 L146.859644,104.075054 L288.399508,-37.4648104 C292.304751,-41.3700533 298.636401,-41.3700533 302.541644,-37.4648104 Z" id="path-4"></path>
    </defs>
    <g id="Page-1" stroke="none" stroke-width="1" fill="none" fill-rule="evenodd">
        <g id="Artboard-theme-light" transform="translate(-56.000000, -55.000000)">
            <g id="Polygon" stroke-linejoin="round" transform="translate(348.000000, 347.000000) rotate(-180.000000) translate(-348.000000, -347.000000) ">
                <use fill="#FFFFFF" fill-rule="evenodd" xlink:href="#path-1"></use>
                <use fill="black" fill-opacity="1" filter="url(#filter-2)" xlink:href="#path-1"></use>
                <path stroke="#A5AFBA" stroke-width="80" d="M599,96 L599,598 L97,598 L97,96 L599,96 Z"></path>
            </g>
            <rect id="Rectangle" fill="#FFFFFF" x="113" y="111" width="470" height="470" rx="21"></rect>
            <mask id="mask-5" fill="white">
                <use xlink:href="#path-4"></use>
            </mask>
            <g id="Rectangle" transform="translate(295.211738, 294.340614) rotate(-45.000000) translate(-295.211738, -294.340614) ">
                <use fill="#0C74E4" xlink:href="#path-4"></use>
                <use fill-opacity="0.4" fill="url(#linearGradient-3)" xlink:href="#path-4"></use>
            </g>
        </g>
    </g>
</svg>

<?xml version="1.0" encoding="UTF-8" standalone="no"?>
<svg
   xmlns:dc="http://purl.org/dc/elements/1.1/"
   xmlns:cc="http://creativecommons.org/ns#"
   xmlns:rdf="http://www.w3.org/1999/02/22-rdf-syntax-ns#"
   xmlns:svg="http://www.w3.org/2000/svg"
   xmlns="http://www.w3.org/2000/svg"
   xmlns:xlink="http://www.w3.org/1999/xlink"
   xmlns:sodipodi="http://sodipodi.sourceforge.net/DTD/sodipodi-0.dtd"
   xmlns:inkscape="http://www.inkscape.org/namespaces/inkscape"
   inkscape:version="1.0rc1 (09960d6, 2020-04-09)"
   sodipodi:docname="browser-action-light.svg"
   id="svg502"
   version="1.1"
   viewBox="0 0 584 584"
   height="584"
   width="584">
  <metadata
     id="metadata506">
    <rdf:RDF>
      <cc:Work
         rdf:about="">
        <dc:format>image/svg+xml</dc:format>
        <dc:type
           rdf:resource="http://purl.org/dc/dcmitype/StillImage" />
        <dc:title>Artboard theme light</dc:title>
      </cc:Work>
    </rdf:RDF>
  </metadata>
  <sodipodi:namedview
     inkscape:current-layer="svg502"
     inkscape:window-maximized="0"
     inkscape:window-y="185"
     inkscape:window-x="391"
     inkscape:cy="297.36089"
     inkscape:cx="293.28998"
     inkscape:zoom="0.91100744"
     showgrid="false"
     id="namedview504"
     inkscape:window-height="980"
     inkscape:window-width="1111"
     inkscape:pageshadow="2"
     inkscape:pageopacity="0"
     guidetolerance="10"
     gridtolerance="10"
     objecttolerance="10"
     borderopacity="1"
     bordercolor="#666666"
     pagecolor="#ffffff" />
  <!-- Generator: Sketch 59.1 (86144) - https://sketch.com -->
  <title
     id="title461">Artboard theme light</title>
  <desc
     id="desc463">Created with Sketch.</desc>
  <defs
     id="defs481">
    <polygon
       points="559,558 229.36533,558 137,558 137,136 559,136 "
       id="path-1" />
    <filter
       id="filter-2"
       filterUnits="objectBoundingBox"
       height="1.3889999"
       width="1.3889999"
       y="-0.19399999"
       x="-0.19399999">
      <feGaussianBlur
         id="feGaussianBlur466"
         result="shadowBlurInner1"
         in="SourceAlpha"
         stdDeviation="1.5" />
      <feOffset
         id="feOffset468"
         result="shadowOffsetInner1"
         in="shadowBlurInner1"
         dy="1"
         dx="0" />
      <feComposite
         k4="0"
         k1="0"
         id="feComposite470"
         result="shadowInnerInner1"
         k3="1"
         k2="-1"
         operator="arithmetic"
         in2="SourceAlpha"
         in="shadowOffsetInner1" />
      <feColorMatrix
         id="feColorMatrix472"
         in="shadowInnerInner1"
         type="matrix"
         values="0 0 0 0 0   0 0 0 0 0   0 0 0 0 0  0 0 0 0.5 0" />
    </filter>
    <linearGradient
       id="linearGradient-3"
       y2="1"
       x2="0.5"
       y1="0"
       x1="0.5">
      <stop
         id="stop475"
         offset="0%"
         stop-opacity="0.5"
         stop-color="#0E2FD0" />
      <stop
         id="stop477"
         offset="100%"
         stop-opacity="0.5"
         stop-color="#000000" />
    </linearGradient>
    <path
       inkscape:connector-curvature="0"
       id="path-4"
       d="m 302.54164,-37.46481 140.87484,140.87483 v 0 l 0.14063,505.65545 c 0.002,5.52285 -4.47437,10.00125 -9.99721,10.00278 -2.65313,7.4e-4 -5.19781,-1.05288 -7.07385,-2.92893 L 294.78262,484.4359 c -3.90524,-3.90524 -10.23689,-3.90524 -14.14213,0 L 165.15124,599.92515 c -3.90525,3.90524 -10.2369,3.90524 -14.14214,0 -1.86925,-1.86925 -2.9223,-4.40259 -2.9289,-7.0461 l -1.22056,-488.804 v 0 L 288.39951,-37.46481 c 3.90524,-3.905243 10.23689,-3.905243 14.14213,0 z" />
  </defs>
  <g
     fill-rule="evenodd"
     fill="none"
     stroke-width="1"
     stroke="none"
     id="Page-1">
    <g
       transform="translate(-56,-55)"
       id="Artboard-theme-light">
      <g
         transform="rotate(180,348,347)"
         stroke-linejoin="round"
         id="Polygon">
        <use
           height="100%"
           width="100%"
           y="0"
           x="0"
           id="use483"
           xlink:href="#path-1"
           fill-rule="evenodd"
           fill="#ffffff" />
        <use
           height="100%"
           width="100%"
           y="0"
           x="0"
           id="use485"
           xlink:href="#path-1"
           filter="url(#filter-2)"
           fill-opacity="1"
           fill="#000000" />
        <path
           inkscape:connector-curvature="0"
           id="path487"
           d="M 599,96 V 598 H 97 V 96 Z"
           stroke-width="80"
           stroke="#a5afba" />
      </g>
      <rect
         rx="21"
         height="470"
         width="470"
         y="111"
         x="113"
         fill="#ffffff"
         id="Rectangle" />
      <mask
         fill="#ffffff"
         id="mask-5">
        <use
           height="100%"
           width="100%"
           y="0"
           x="0"
           id="use491"
           xlink:href="#path-4" />
      </mask>
      <g
         transform="rotate(-45,295.21174,294.34061)"
         id="g498">
        <use
           height="100%"
           width="100%"
           y="0"
           x="0"
           id="use494"
           xlink:href="#path-4"
           fill="#0c74e4" />
        <use
           height="100%"
           width="100%"
           y="0"
           x="0"
           id="use496"
           xlink:href="#path-4"
           fill="url(#linearGradient-3)"
           fill-opacity="0.4" />
      </g>
    </g>
  </g>
</svg>
